X:1
T:Title
%%score 1 2 3
L:1/8
Q:1/4=180
M:6/4
K:C
V:1 treble nm="Grand Piano"
V:2 bass nm="Grand Piano, Melody"
V:3 bass nm="Grand Piano"
V:1
 A6 e2 e2 e2 | c2 B2 A2 B6 | B6 c2 B2 A2 | E2 F2 G2 A6 | A6 e2 e2 e2 | c2 B2 A2 B6 | B6 c2 B2 A2 | %7
 E2 F2 G2 A6- | A6 A6 | E2 E2 E2 c2 B2 A2 | B6 B6 | e2 e2 e2 d2 c2 e2 | d6 e6 | c2 A2 A2 A2 B2 c2 | %14
 B6 e6 | c2 B2 A2 G2 A2 B2 | A6 A6 | E2 E2 E2 c2 B2 A2 | B6 B6 | e2 e2 e2 d2 c2 e2 | d6 e6 | %21
 c2 A2 A2 A2 B2 c2 | B6 e6 | c2 B2 A2 G2 A2 B2 | A12 |] %25
V:2
 A,6 A,2 E,2 A,2 | C2[K:treble] D2 E2 E6 | E6 C2 D2 C2 | B,2 A,2 G,2 A,6 | A,6 A,2 E,2 A,2 | %5
 C2 D2 E2 E6 | E6 C2 D2 C2 | B,2 A,2 G,2 A,6- | A,6[K:treble] C6 | E2 E2 E2 G2 E2 C2 | D6 D6 | %11
 E2 G2 E2 D2 C2[K:bass] A,2 | G,6 E,6 | A,2 A,2 A,2 C2 B,2 A,2 | D6 E6 | %15
 C2 D2 C2[K:bass] B,2 A,2 G,2 | A,6 C6 | E2 E2 E2 G2 E2 C2 | D6 D6 | E2 G2 E2 D2 C2[K:bass] A,2 | %20
 G,6 E,6 | A,2 A,2 A,2 C2 B,2 A,2 | D6 E6 | C2 D2 C2 B,2 A,2 G,2 | A,12 |] %25
V:3
 A,6 A,2 C2 B,2 | A,2 G,2 F,2 E,6 | E,6 C,2 D,2 E,2 | E,2 D,2 E,2 A,,6 | A,6 A,2 C2 B,2 | %5
 A,2 G,2 F,2 E,6 | E,6 C,2 D,2 E,2 | E,2 D,2 E,2 A,,6- | A,,6 C6 | A,2 A,2 A,2 C2 A,2 E,2 | %10
 G,6 G,6 | A,2 C2 A,2 G,2 E,2 C,2 | D,6 A,,6 | C,2 D,2 E,2 E,2 D,2 C,2 | G,6 A,6 | %15
 E,2 F,2 G,2 E,2 D,2 E,2 | A,,6 C6 | A,2 A,2 A,2 C2 A,2 E,2 | G,6 G,6 | A,2 C2 A,2 G,2 E,2 C,2 | %20
 D,6 A,,6 | C,2 D,2 E,2 E,2 D,2 C,2 | G,6 A,6 | E,2 F,2 G,2 E,2 D,2 E,2 | A,,12 |] %25

